brandFactory_export/2.Regular/Intercambio_2Regular.svg

<?xml version="1.0" encoding="UTF-8"?>
<svg width="24px" height="24px" viewBox="0 0 24 24" version="1.1" xmlns="http://www.w3.org/2000/svg" xmlns:xlink="http://www.w3.org/1999/xlink">
    <title>2.Regular/Intercambio_2Regular</title>
    <g id="Symbols" stroke="none" stroke-width="1" fill="none" fill-rule="evenodd">
        <g id="2.Regular/Intercambio_2Regular" fill="#5CB615" fill-rule="nonzero">
            <path d="M21.4134454,5.38823529 L21.3697479,6.07394958 C21.3294118,6.6789916 20.989916,9.80504202 18.1697479,11.7613445 L17.0941176,12.5042017 L18.287395,13.0319328 C22.6672269,14.9848739 22.7781513,19.4084034 22.7815126,19.589916 C22.7815126,19.9462185 22.492437,20.2386555 22.1327731,20.2386555 C21.7764706,20.2386555 21.4840336,19.9495798 21.4840336,19.5865546 C21.4773109,19.0285714 21.2184874,14.6285714 15.7596639,13.6302521 C15.8201681,13.3512605 15.8605042,13.0521008 15.8605042,12.7193277 C15.8605042,12.2722689 15.7966387,11.8789916 15.6890756,11.5226891 C19.5546218,10.1848739 20.0151261,6.92773109 20.0689076,6.17142857 L20.0722689,5.39495798 L19.0941176,5.38487395 L20.7210084,3.73445378 L22.3579832,5.38487395 L21.4134454,5.38823529 L21.4134454,5.38823529 Z M3.99495798,19.589916 C3.98823529,19.9462185 3.69915966,20.2352941 3.34285714,20.2352941 C2.98655462,20.2319328 2.69747899,19.9428571 2.69747899,19.5966387 C2.70084034,19.4084034 2.81176471,14.9512605 7.27563025,13.0151261 L8.47226891,12.4941176 L7.40336134,11.7411765 C4.63697479,9.79159664 4.2907563,6.6789916 4.25378151,6.07394958 L4.1394958,5.39495798 L3.26554622,5.38823529 L4.89915966,3.73781513 L6.53277311,5.38823529 L5.50084034,5.39159664 L5.55462185,6.17478992 C5.60840336,6.92773109 6.06554622,10.1815126 9.93445378,11.5226891 C9.82352941,11.8789916 9.75966387,12.2722689 9.75966387,12.7193277 C9.75966387,13.0453782 9.8,13.3411765 9.85714286,13.6134454 C4.26722689,14.5848739 4.00168067,19.0285714 3.99495798,19.589916 Z M14.3915966,12.7193277 C14.3915966,13.0084034 14.3613445,13.2571429 14.3008403,13.4588235 C14.2403361,13.6705882 14.1495798,13.8352941 14.0252101,13.9529412 C13.7260504,14.2386555 13.1983193,14.2957983 12.805042,14.2957983 C12.4151261,14.2957983 11.8840336,14.2386555 11.5915966,13.9563025 C11.4672269,13.8386555 11.3764706,13.6705882 11.3159664,13.4588235 C11.2554622,13.2537815 11.2252101,13.0117647 11.2252101,12.7226891 C11.2252101,12.3865546 11.2689076,12.1142857 11.3495798,11.892437 C11.410084,11.7243697 11.487395,11.5831933 11.5915966,11.4857143 C11.887395,11.2 12.4151261,11.1394958 12.805042,11.1394958 C13.194958,11.1394958 13.7260504,11.2 14.0218487,11.4857143 C14.1260504,11.5865546 14.2033613,11.7277311 14.2638655,11.892437 C14.3478992,12.1142857 14.3915966,12.3831933 14.3915966,12.7193277 Z M24.4218487,5.38823529 L21.4,2.34621849 C21.1008403,1.97647059 20.5563025,1.91260504 20.1831933,2.20504202 L17.0302521,5.39495798 C16.8151261,5.6605042 16.7747899,6.03361345 16.9226891,6.34285714 C17.0739496,6.65210084 17.3731092,6.84033613 17.7058824,6.84033613 L18.4756303,6.84705882 C18.1966387,7.93277311 17.3563025,9.55630252 14.8487395,10.2756303 C14.3411765,9.8789916 13.6621849,9.66722689 12.8084034,9.66722689 C11.9546218,9.66722689 11.2823529,9.8789916 10.7747899,10.2722689 C8.26722689,9.55294118 7.42689076,7.93277311 7.1512605,6.84705882 L7.91428571,6.84033613 C8.25378151,6.84033613 8.55630252,6.6487395 8.70756303,6.3394958 C8.85546218,6.02689076 8.81176471,5.65714286 8.54957983,5.33445378 L5.59831933,2.35294118 L5.45378151,2.20840336 C5.27226891,2.06386555 5.04033613,1.99663866 4.80840336,2.02352941 C4.57647059,2.05042017 4.37142857,2.16806723 4.28067227,2.28907563 L1.20840336,5.39159664 C0.993277311,5.65714286 0.949579832,6.02689076 1.09747899,6.3394958 C1.24537815,6.6487395 1.54789916,6.84033613 1.88067227,6.84033613 L2.87226891,6.84705882 C3.06386555,8.10756303 3.68235294,10.3731092 5.6487395,12.194958 C1.29243697,14.7462185 1.23865546,19.5327731 1.23865546,19.5865546 C1.23865546,20.7394958 2.17983193,21.687395 3.35630252,21.697479 C4.50588235,21.697479 5.45714286,20.7596639 5.47394958,19.6067227 C5.48067227,19.1697479 5.70588235,15.6336134 10.5731092,14.9882353 C10.5764706,14.9915966 10.5798319,15.0016807 10.5865546,15.005042 C11.1042017,15.5058824 11.8571429,15.7579832 12.8184874,15.7579832 C13.7798319,15.7579832 14.5327731,15.5058824 15.0537815,15.0084034 C15.0571429,15.005042 15.0571429,15.0016807 15.0605042,14.9983193 C19.692437,15.6369748 20.0151261,18.897479 20.0252101,19.5966387 C20.0319328,20.7563025 20.9831933,21.7008403 22.1428571,21.7008403 C23.3092437,21.7008403 24.2605042,20.7495798 24.2605042,19.5831933 C24.2605042,19.5327731 24.210084,14.7865546 19.9378151,12.2252101 C21.9512605,10.3831933 22.5764706,8.05378151 22.7680672,6.84705882 L23.7563025,6.83697479 C24.0991597,6.83697479 24.4016807,6.64537815 24.5495798,6.33277311 C24.6840336,6.02689076 24.6403361,5.65378151 24.4218487,5.38823529 Z" id="Intercambio_2Regular"></path>
        </g>
    </g>
</svg>

<svg width="24" height="24" viewBox="0 0 24 24" xmlns="http://www.w3.org/2000/svg"><path d="M21.413 5.388l-.043.686c-.04.605-.38 3.731-3.2 5.687l-1.076.743 1.193.528c4.38 1.953 4.491 6.376 4.495 6.558a.65.65 0 11-1.298-.003c-.007-.558-.266-4.958-5.724-5.957a4.245 4.245 0 00-.07-2.107c3.865-1.338 4.325-4.595 4.379-5.352l.003-.776-.978-.01 1.627-1.65 1.637 1.65-.945.003zM3.995 19.59a.656.656 0 01-.652.645.649.649 0 01-.646-.638c.004-.189.115-4.646 4.579-6.582l1.196-.52-1.069-.754c-2.766-1.95-3.112-5.062-3.15-5.667l-.114-.679-.873-.007 1.633-1.65 1.634 1.65-1.032.004.054.783c.053.753.51 4.007 4.38 5.348-.111.356-.175.75-.175 1.196 0 .326.04.622.097.894-5.59.972-5.855 5.416-5.862 5.977zm10.397-6.87c0 .288-.03.537-.091.739-.06.212-.151.376-.276.494-.299.286-.827.343-1.22.343-.39 0-.921-.057-1.213-.34a1.077 1.077 0 01-.276-.497 2.605 2.605 0 01-.09-.736c0-.336.043-.609.124-.83.06-.169.137-.31.242-.407.295-.286.823-.347 1.213-.347.39 0 .921.061 1.217.347.104.1.181.242.242.406.084.222.128.491.128.827zm10.03-7.332L21.4 2.346a.876.876 0 00-1.217-.141l-3.153 3.19a.898.898 0 00-.107.948c.15.31.45.497.783.497l.77.007c-.28 1.086-1.12 2.71-3.627 3.429-.508-.397-1.187-.609-2.04-.609-.854 0-1.527.212-2.034.605-2.508-.72-3.348-2.34-3.624-3.425l.763-.007c.34 0 .642-.191.794-.5.147-.313.104-.683-.158-1.006L5.598 2.353l-.144-.145a.874.874 0 00-.646-.184c-.232.026-.437.144-.527.265L1.208 5.392a.898.898 0 00-.11.947c.147.31.45.501.783.501l.991.007c.192 1.26.81 3.526 2.777 5.348-4.357 2.551-4.41 7.338-4.41 7.392 0 1.152.94 2.1 2.117 2.11 1.15 0 2.101-.937 2.118-2.09.007-.437.232-3.973 5.1-4.619.002.004.006.014.013.017.517.5 1.27.753 2.231.753.962 0 1.715-.252 2.236-.75l.007-.01c4.631.639 4.954 3.9 4.964 4.599a2.123 2.123 0 002.118 2.104 2.122 2.122 0 002.118-2.118c0-.05-.05-4.796-4.323-7.358 2.013-1.842 2.638-4.171 2.83-5.378l.988-.01a.868.868 0 00.794-.504.92.92 0 00-.128-.945z" fill="#5CB615" fill-rule="nonzero"/></svg>
